flaticon/office/briefcase.svg

<svg xmlns="http://www.w3.org/2000/svg" width="32" height="32" viewBox="0 0 24 24">
    <path d="M 22.796875 4.804688 L 18.78125 4.804688 C 18.59375 2.683594 16.917969 1.011719 14.800781 0.820312 L 14.800781 0.402344 C 14.800781 0.285156 14.71875 0.164062 14.640625 0.0820312 C 14.519531 0.00390625 14.398438 -0.0351562 14.28125 0.0429688 C 12.800781 0.523438 11.199219 0.523438 9.71875 0.0429688 C 9.601562 0.00390625 9.441406 0.00390625 9.359375 0.0820312 C 9.28125 0.164062 9.199219 0.285156 9.199219 0.402344 L 9.199219 0.820312 C 7.082031 1.011719 5.40625 2.683594 5.21875 4.804688 L 1.203125 4.804688 C 0.523438 4.804688 0 5.324219 0 6.003906 L 0 12.800781 C 0 13.242188 0.363281 13.601562 0.800781 13.601562 L 0.800781 22.800781 C 0.800781 23.480469 1.320312 24 2 24 L 22 24 C 22.679688 24 23.199219 23.480469 23.199219 22.800781 L 23.199219 13.601562 C 23.636719 13.601562 24 13.242188 24 12.800781 L 24 6.003906 C 24 5.324219 23.476562 4.804688 22.796875 4.804688 Z M 22.796875 5.601562 C 23.039062 5.601562 23.199219 5.761719 23.199219 6.003906 L 23.199219 6.800781 L 22.398438 6.800781 C 22.160156 6.800781 22 6.644531 22 6.402344 L 22 5.601562 Z M 17.960938 4.804688 L 17.160156 4.804688 C 17 3.5625 16.039062 2.601562 14.800781 2.441406 L 14.800781 1.644531 C 16.4375 1.804688 17.757812 3.125 17.960938 4.804688 Z M 9.359375 3.921875 C 9.441406 3.964844 9.519531 4.003906 9.601562 4.003906 C 9.640625 4.003906 9.679688 4.003906 9.71875 3.964844 C 11.199219 3.484375 12.800781 3.484375 14.28125 3.964844 C 14.398438 4.003906 14.519531 4.003906 14.640625 3.921875 C 14.71875 3.84375 14.800781 3.722656 14.800781 3.601562 L 14.800781 3.242188 C 15.59375 3.398438 16.203125 4.007812 16.359375 4.804688 L 7.640625 4.804688 C 7.796875 4.007812 8.40625 3.398438 9.199219 3.242188 L 9.199219 3.601562 C 9.199219 3.722656 9.28125 3.84375 9.359375 3.921875 Z M 10 0.921875 C 11.320312 1.285156 12.679688 1.285156 14 0.921875 L 14 3.042969 C 12.679688 2.722656 11.320312 2.722656 10 3.042969 Z M 9.199219 1.644531 L 9.199219 2.441406 C 8 2.601562 7 3.5625 6.839844 4.804688 L 6.039062 4.804688 C 6.199219 3.125 7.519531 1.804688 9.199219 1.644531 Z M 0.800781 6.003906 C 0.800781 5.761719 0.960938 5.601562 1.203125 5.601562 L 2 5.601562 L 2 6.402344 C 2 6.644531 1.839844 6.800781 1.601562 6.800781 L 0.800781 6.800781 Z M 2 23.199219 C 1.761719 23.199219 1.601562 23.039062 1.601562 22.800781 L 1.601562 22 L 2.402344 22 C 2.640625 22 2.800781 22.160156 2.800781 22.398438 L 2.800781 23.199219 Z M 22.398438 22.800781 C 22.398438 23.039062 22.238281 23.199219 22 23.199219 L 21.199219 23.199219 L 21.199219 22.398438 C 21.199219 22.160156 21.359375 22 21.597656 22 L 22.398438 22 Z M 22.398438 21.199219 L 21.597656 21.199219 C 20.917969 21.199219 20.398438 21.71875 20.398438 22.398438 L 20.398438 23.199219 L 3.601562 23.199219 L 3.601562 22.398438 C 3.601562 21.71875 3.082031 21.199219 2.402344 21.199219 L 1.601562 21.199219 L 1.601562 13.601562 L 8.800781 13.601562 L 8.800781 14 C 8.800781 14.679688 9.320312 15.203125 10 15.203125 L 14 15.203125 C 14.679688 15.203125 15.199219 14.679688 15.199219 14 L 15.199219 13.601562 L 22.398438 13.601562 Z M 14.398438 13.203125 L 14.398438 14 C 14.398438 14.242188 14.238281 14.402344 14 14.402344 L 10 14.402344 C 9.761719 14.402344 9.601562 14.242188 9.601562 14 L 9.601562 12.402344 C 9.601562 12.160156 9.761719 12 10 12 L 14 12 C 14.238281 12 14.398438 12.160156 14.398438 12.402344 Z M 22.796875 12.800781 L 15.199219 12.800781 L 15.199219 12.402344 C 15.199219 11.722656 14.679688 11.203125 14 11.203125 L 10 11.203125 C 9.320312 11.203125 8.800781 11.722656 8.800781 12.402344 L 8.800781 12.800781 L 0.800781 12.800781 L 0.800781 7.601562 L 1.601562 7.601562 C 2.28125 7.601562 2.800781 7.082031 2.800781 6.402344 L 2.800781 5.601562 L 21.199219 5.601562 L 21.199219 6.402344 C 21.199219 7.082031 21.71875 7.601562 22.398438 7.601562 L 23.199219 7.601562 L 23.199219 12.800781 Z M 22.796875 12.800781"/>
</svg>

<svg xmlns="http://www.w3.org/2000/svg" width="32" height="32" viewBox="0 0 24 24">
    <path d="M22.797 4.805H18.78A4.386 4.386 0 0 0 14.801.82V.402c0-.117-.082-.238-.16-.32-.121-.078-.243-.117-.36-.039-1.48.48-3.082.48-4.562 0-.117-.04-.278-.04-.36.039-.078.082-.16.203-.16.32V.82a4.386 4.386 0 0 0-3.98 3.985H1.203C.523 4.805 0 5.325 0 6.004V12.8c0 .441.363.8.8.8v9.2C.8 23.48 1.32 24 2 24h20c.68 0 1.2-.52 1.2-1.2v-9.198c.437 0 .8-.36.8-.801V6.004c0-.68-.523-1.2-1.203-1.2zm0 .797c.242 0 .402.16.402.402V6.8h-.8c-.239 0-.399-.156-.399-.399v-.8zm-4.836-.797h-.8A2.72 2.72 0 0 0 14.8 2.44v-.796c1.636.16 2.957 1.48 3.16 3.16zm-8.602-.883c.082.043.16.082.243.082.039 0 .078 0 .117-.04a7.401 7.401 0 0 1 4.562 0c.117.04.239.04.36-.042.078-.078.16-.2.16-.32v-.36a1.967 1.967 0 0 1 1.558 1.563H7.641a1.967 1.967 0 0 1 1.558-1.563v.36c0 .12.082.242.16.32zm.641-3c1.32.363 2.68.363 4 0v2.121a8.445 8.445 0 0 0-4 0zm-.8.723v.796a2.76 2.76 0 0 0-2.36 2.364h-.8c.16-1.68 1.48-3 3.16-3.16zM.8 6.004c0-.242.16-.402.403-.402H2v.8c0 .243-.16.399-.398.399H.8zM2 23.199c-.238 0-.398-.16-.398-.398V22h.8c.239 0 .399.16.399.398v.801zm20.398-.398c0 .238-.16.398-.398.398h-.8v-.8c0-.239.16-.399.398-.399h.8zm0-1.602h-.8c-.68 0-1.2.52-1.2 1.2v.8H3.602v-.8c0-.68-.52-1.2-1.2-1.2h-.8v-7.597H8.8V14c0 .68.52 1.203 1.199 1.203h4c.68 0 1.2-.523 1.2-1.203v-.398h7.198zm-8-7.996V14c0 .242-.16.402-.398.402h-4c-.238 0-.398-.16-.398-.402v-1.598c0-.242.16-.402.398-.402h4c.238 0 .398.16.398.402zm8.399-.402h-7.598v-.399c0-.68-.52-1.199-1.199-1.199h-4c-.68 0-1.2.52-1.2 1.2v.398h-8V7.6h.802c.68 0 1.199-.519 1.199-1.199v-.8h18.398v.8c0 .68.52 1.2 1.2 1.2h.8V12.8zm0 0"/>
</svg>
